icon-themes/breeze_svg/cmd/32/starshapes.vertical-scroll.svg

<svg viewBox="0 0 32 32" xmlns="http://www.w3.org/2000/svg"><path d="m10 4c-1.662 0-3 1.337985-3 3v15c-1.6569 0-3 1.3431-3 3s1.3431 3 3 3h15c1.662 0 3-1.337985 3-3v-3-12c1.6569 0 3-1.3431 3-3s-1.3431-3-3-3z" fill="#4d4d4d"/></svg>

<svg xmlns="http://www.w3.org/2000/svg" viewBox="0 0 32 32">
 <path 
     style="fill:#4d4d4d" 
     d="M 10 4 C 8.338 4 7 5.337985 7 7 L 7 22 C 5.3431 22 4 23.3431 4 25 C 4 26.6569 5.3431 28 7 28 L 22 28 C 23.662 28 25 26.662015 25 25 L 25 22 L 25 10 C 26.6569 10 28 8.6569 28 7 C 28 5.3431 26.6569 4 25 4 L 10 4 z "
     />
</svg>
